common/src/main/resources/glyphs/plugins/groovy/abstractField_dark.svg

<svg xmlns="http://www.w3.org/2000/svg" width="16" height="16" fill="#eff" data-big="true" viewBox="0 0 24 24"><path d="M5.5 7C6.33 7 7 6.33 7 5.5S6.33 4 5.5 4 4 4.67 4 5.5 4.67 7 5.5 7m15.91 4.58c.36.36.59.86.59 1.42 0 .55-.22 1.05-.59 1.41l-7 7c-.36.36-.86.59-1.41.59s-1.05-.23-1.42-.59l-8.99-9C2.22 12.05 2 11.55 2 11V4c0-1.11.89-2 2-2h7c.55 0 1.05.22 1.41.58zM13 20l7-7-8.5-8.5-7 7z"/></svg>

<!--
  - The MIT License (MIT)
  -
  - Copyright (c) 2015-2024 Elior "Mallowigi" Boukhobza
  -
  - Permission is hereby granted, free of charge, to any person obtaining a copy
  - of this software and associated documentation files (the "Software"), to deal
  - in the Software without restriction, including without limitation the rights
  - to use, copy, modify, merge, publish, distribute, sublicense, and/or sell
  - copies of the Software, and to permit persons to whom the Software is
  - furnished to do so, subject to the following conditions:
  -
  - The above copyright notice and this permission notice shall be included in all
  - copies or substantial portions of the Software.
  -
  - THE SOFTWARE IS PROVIDED "AS IS", WITHOUT WARRANTY OF ANY KIND, EXPRESS OR
  - IMPLIED, INCLUDING BUT NOT LIMITED TO THE WARRANTIES OF MERCHANTABILITY,
  - FITNESS FOR A PARTICULAR PURPOSE AND NONINFRINGEMENT. IN NO EVENT SHALL THE
  - AUTHORS OR COPYRIGHT HOLDERS BE LIABLE FOR ANY CLAIM, DAMAGES OR OTHER
  - LIABILITY, WHETHER IN AN ACTION OF CONTRACT, TORT OR OTHERWISE, ARISING FROM,
  - OUT OF OR IN CONNECTION WITH THE SOFTWARE OR THE USE OR OTHER DEALINGS IN THE
  - SOFTWARE.
  -->


<svg data-big="true" xmlns="http://www.w3.org/2000/svg" version="1.1" width="16px" height="16px" fill="#eeffff"
     viewBox="0 0 24 24">
  <path
    d="M5.5,7C6.33,7 7,6.33 7,5.5C7,4.67 6.33,4 5.5,4C4.67,4 4,4.67 4,5.5C4,6.33 4.67,7 5.5,7M21.41,11.58C21.77,11.94 22,12.44 22,13C22,13.55 21.78,14.05 21.41,14.41L14.41,21.41C14.05,21.77 13.55,22 13,22C12.45,22 11.95,21.77 11.58,21.41L2.59,12.41C2.22,12.05 2,11.55 2,11V4C2,2.89 2.89,2 4,2H11C11.55,2 12.05,2.22 12.41,2.58L21.41,11.58M13,20L20,13L11.5,4.5L4.5,11.5L13,20Z"/>
</svg>
